packages/icons/src/gitops-repository-blue.svg

<svg fill="none" viewBox="0 0 64 64" xmlns="http://www.w3.org/2000/svg"><path clip-rule="evenodd" d="m10.7099 15.0273c.0858.0481.1823.0989.2903.1521.9953.4902 2.5647.9874 4.6676 1.4255 4.1729.8694 10.0298 1.4224 16.5627 1.4224s12.3897-.553 16.5626-1.4224c2.1029-.4381 3.6724-.9353 4.6676-1.4255.108-.0532.2045-.104.2904-.1521-.0859-.048-.1824-.0988-.2904-.152-.9952-.4902-2.5647-.9874-4.6676-1.4255-4.1729-.8694-10.0297-1.4225-16.5626-1.4225s-12.3898.5531-16.5627 1.4225c-2.1029.4381-3.6723.9353-4.6676 1.4255-.108.0532-.2045.104-.2903.152zm4.1421-5.49345c4.5134-.94029 10.6565-1.50651 17.3785-1.50651 6.7219 0 12.8651.56622 17.3784 1.50651 2.2403.46675 4.1856 1.04695 5.6193 1.75315.7129.3511 1.4034.7833 1.9415 1.3312.5447.5545 1.0608 1.3666 1.0608 2.4091 0 .5226-.1297.9874-.3277 1.3907l-3.9037 36.1706c.0006.0244.0009.0489.0009.0736 0 .985-.4881 1.741-.9795 2.2412-.4848.4936-1.0967.8735-1.7085 1.1748-1.2313.6065-2.8836 1.0969-4.762 1.4883-3.7895.7894-8.9326 1.2624-14.55 1.2624s-10.7605-.473-14.55-1.2624c-1.8784-.3914-3.5307-.8818-4.762-1.4883-.6118-.3013-1.2237-.6812-1.7085-1.1748-.3652-.3717-.7285-.8847-.8911-1.5279l-.0156.0015-.0123-.1228c-.0388-.187-.0605-.3844-.0605-.592v-.01l-3.73046-37.1333c-.02534-.1576-.03907-.3215-.03907-.4916 0-1.0425.5161-1.8546 1.06075-2.4091.53813-.5479 1.22862-.9801 1.94156-1.3312 1.43372-.7062 3.37892-1.2864 5.61922-1.75315zm34.7569 10.98695c1.4592-.304 2.7932-.6561 3.9423-1.0598l-3.5356 32.7597c-.1.0691-.2515.1611-.471.2692-.7928.3905-2.0694.7979-3.8104 1.1606-3.449.7186-8.3059 1.1784-13.7342 1.1784s-10.2852-.4598-13.7342-1.1784c-1.741-.3627-3.0176-.7701-3.8104-1.1606-.2257-.1112-.3794-.2052-.4792-.2749l-3.2989-32.8373c1.2002.4388 2.616.8184 4.1747 1.1431 4.5134.9403 10.6565 1.5065 17.3785 1.5065 6.7219 0 12.8651-.5662 17.3784-1.5065zm-14.4962 9.3661c.2122-1.084-.4945-2.1348-1.5785-2.347-1.084-.2121-2.1348.4946-2.347 1.5786l-2.7638 14.1192c-.2122 1.084.4945 2.1348 1.5785 2.347s2.1348-.4946 2.347-1.5786zm3.6732-.3395c.755-.8062 2.0207-.8477 2.8269-.0926l5.5277 5.177c.796.7455.848 1.9913.1169 2.8006l-5.5278 6.1183c-.7404.8196-2.0052.8837-2.8248.1433-.8196-.7405-.8837-2.0052-.1432-2.8248l4.2108-4.6607-4.0939-3.8342c-.8062-.755-.8477-2.0207-.0926-2.8269zm-16.6481-.0632c.7899-.772 2.0562-.7575 2.8282.0325s.7575 2.0562-.0325 2.8282l-4.1264 4.0327 4.1873 4.4641c.7556.8056.7151 2.0713-.0905 2.827-.8056.7556-2.0713.7151-2.827-.0905l-5.5277-5.8933c-.7448-.7939-.7177-2.0377.0608-2.7986z" fill="#0278d5" fill-rule="evenodd"/></svg>

<svg viewBox="0 0 64 64" fill="none" xmlns="http://www.w3.org/2000/svg">
<path fill-rule="evenodd" clip-rule="evenodd" d="M10.7099 15.0273C10.7957 15.0754 10.8922 15.1262 11.0002 15.1794C11.9955 15.6696 13.5649 16.1668 15.6678 16.6049C19.8407 17.4743 25.6976 18.0273 32.2305 18.0273C38.7634 18.0273 44.6202 17.4743 48.7931 16.6049C50.896 16.1668 52.4655 15.6696 53.4607 15.1794C53.5687 15.1262 53.6652 15.0754 53.7511 15.0273C53.6652 14.9793 53.5687 14.9285 53.4607 14.8753C52.4655 14.3851 50.896 13.8879 48.7931 13.4498C44.6202 12.5804 38.7634 12.0273 32.2305 12.0273C25.6976 12.0273 19.8407 12.5804 15.6678 13.4498C13.5649 13.8879 11.9955 14.3851 11.0002 14.8753C10.8922 14.9285 10.7957 14.9793 10.7099 15.0273ZM14.852 9.53385C19.3654 8.59356 25.5085 8.02734 32.2305 8.02734C38.9524 8.02734 45.0956 8.59356 49.6089 9.53385C51.8492 10.0006 53.7945 10.5808 55.2282 11.287C55.9411 11.6381 56.6316 12.0703 57.1697 12.6182C57.7144 13.1727 58.2305 13.9848 58.2305 15.0273C58.2305 15.5499 58.1008 16.0147 57.9028 16.418L53.9991 52.5886C53.9997 52.613 54 52.6375 54 52.6622C54 53.6472 53.5119 54.4032 53.0205 54.9034C52.5357 55.397 51.9238 55.7769 51.312 56.0782C50.0807 56.6847 48.4284 57.1751 46.55 57.5665C42.7605 58.3559 37.6174 58.8289 32 58.8289C26.3826 58.8289 21.2395 58.3559 17.45 57.5665C15.5716 57.1751 13.9193 56.6847 12.688 56.0782C12.0762 55.7769 11.4643 55.397 10.9795 54.9034C10.6143 54.5317 10.251 54.0187 10.0884 53.3755L10.0728 53.377L10.0605 53.2542C10.0217 53.0672 10 52.8698 10 52.6622L10 52.6522L6.26954 15.5189C6.2442 15.3613 6.23047 15.1974 6.23047 15.0273C6.23047 13.9848 6.74657 13.1727 7.29122 12.6182C7.82935 12.0703 8.51984 11.6381 9.23278 11.287C10.6665 10.5808 12.6117 10.0006 14.852 9.53385ZM49.6089 20.5208C51.0681 20.2168 52.4021 19.8647 53.5512 19.461L50.0156 52.2207C49.9156 52.2898 49.7641 52.3818 49.5446 52.4899C48.7518 52.8804 47.4752 53.2878 45.7342 53.6505C42.2852 54.3691 37.4283 54.8289 32 54.8289C26.5717 54.8289 21.7148 54.3691 18.2658 53.6505C16.5248 53.2878 15.2482 52.8804 14.4554 52.4899C14.2297 52.3787 14.076 52.2847 13.9762 52.215L10.6773 19.3777C11.8775 19.8165 13.2933 20.1961 14.852 20.5208C19.3654 21.4611 25.5085 22.0273 32.2305 22.0273C38.9524 22.0273 45.0956 21.4611 49.6089 20.5208ZM35.1127 29.8869C35.3249 28.8029 34.6182 27.7521 33.5342 27.5399C32.4502 27.3278 31.3994 28.0345 31.1872 29.1185L28.4234 43.2377C28.2112 44.3217 28.9179 45.3725 30.0019 45.5847C31.0859 45.7969 32.1367 45.0901 32.3489 44.0061L35.1127 29.8869ZM38.7859 29.5474C39.5409 28.7412 40.8066 28.6997 41.6128 29.4548L47.1405 34.6318C47.9365 35.3773 47.9885 36.6231 47.2574 37.4324L41.7296 43.5507C40.9892 44.3703 39.7244 44.4344 38.9048 43.694C38.0852 42.9535 38.0211 41.6888 38.7616 40.8692L42.9724 36.2085L38.8785 32.3743C38.0723 31.6193 38.0308 30.3536 38.7859 29.5474ZM22.1378 29.4842C22.9277 28.7122 24.194 28.7267 24.966 29.5167C25.738 30.3067 25.7235 31.5729 24.9335 32.3449L20.8071 36.3776L24.9944 40.8417C25.75 41.6473 25.7095 42.913 24.9039 43.6687C24.0983 44.4243 22.8326 44.3838 22.0769 43.5782L16.5492 37.6849C15.8044 36.891 15.8315 35.6472 16.61 34.8863L22.1378 29.4842Z" fill="#0278D5"/>
</svg>
